src/components/layout/Footer/yt.svg

<svg width="15" height="12" viewBox="0 0 15 12" fill="none" xmlns="http://www.w3.org/2000/svg">
<path d="M14.1486 4.83193C14.1486 4.52775 14.098 4.17288 14.098 3.76731C14.0473 3.36174 13.9965 2.95616 13.9459 2.60129C13.8445 2.19572 13.6924 1.89154 13.3882 1.63806C13.1347 1.38458 12.7798 1.23248 12.425 1.18179C11.2589 1.0297 9.53527 0.979004 7.20323 0.979004C4.8712 0.979004 3.09681 1.0297 1.98149 1.18179C1.62661 1.23248 1.27174 1.38458 1.01826 1.63806C0.764777 1.89154 0.561988 2.19572 0.460595 2.60129C0.359202 2.95616 0.308512 3.31104 0.308512 3.76731C0.257816 4.17288 0.257812 4.52775 0.257812 4.83193C0.257812 5.13611 0.257812 5.49098 0.257812 5.99795C0.257812 6.50491 0.257812 6.91049 0.257812 7.16397C0.257812 7.46815 0.308512 7.82303 0.308512 8.2286C0.359208 8.63417 0.409899 9.03973 0.460595 9.39461C0.561988 9.80018 0.71408 10.1044 1.01826 10.3578C1.27174 10.6113 1.62661 10.7634 1.98149 10.8141C3.14751 10.9662 4.8712 11.0169 7.20323 11.0169C9.53527 11.0169 11.3096 10.9662 12.425 10.8141C12.7798 10.7634 13.1347 10.6113 13.3882 10.3578C13.6417 10.1044 13.8445 9.80018 13.9459 9.39461C14.0472 9.03973 14.098 8.68486 14.098 8.2286C14.1486 7.82303 14.1486 7.46815 14.1486 7.16397C14.1486 6.85979 14.1486 6.50491 14.1486 5.99795C14.1486 5.49098 14.1486 5.08541 14.1486 4.83193ZM9.89014 6.40352L5.88512 8.88764C5.83442 8.93834 5.73303 8.98904 5.63164 8.98904C5.53025 8.98904 5.47955 8.98904 5.37816 8.93834C5.22607 8.83695 5.12467 8.68486 5.12467 8.48208V3.46313C5.12467 3.26034 5.22607 3.10825 5.37816 3.00686C5.53025 2.90547 5.73303 2.90547 5.88512 3.00686L9.89014 5.49098C10.0422 5.59238 10.1436 5.74447 10.1436 5.89656C10.1436 6.04865 10.0422 6.30213 9.89014 6.40352Z" fill="white"/>
</svg>

<svg xmlns="http://www.w3.org/2000/svg" width="15" height="12" fill="none"><path fill="#fff" d="M14.149 4.832c0-.304-.051-.66-.051-1.065a71.29 71.29 0 0 0-.152-1.166c-.101-.405-.254-.71-.558-.963a1.713 1.713 0 0 0-.963-.456C11.259 1.03 9.535.979 7.203.979c-2.332 0-4.106.05-5.222.203-.354.05-.71.203-.963.456a2.023 2.023 0 0 0-.557.963c-.102.355-.152.71-.152 1.166-.051.406-.051.76-.051 1.065v2.332c0 .304.05.659.05 1.065.051.405.102.81.153 1.166.101.405.253.71.557.963.254.253.609.405.963.456 1.167.152 2.89.203 5.222.203 2.332 0 4.107-.05 5.222-.203.355-.05.71-.203.963-.456.254-.254.457-.558.558-.963.101-.355.152-.71.152-1.166.05-.406.05-.76.05-1.065V4.832ZM9.89 6.404 5.885 8.888a.387.387 0 0 1-.253.101c-.102 0-.152 0-.254-.05a.532.532 0 0 1-.253-.457V3.463c0-.203.101-.355.253-.456a.46.46 0 0 1 .507 0L9.89 5.49c.152.101.254.253.254.406 0 .152-.102.405-.254.507Z"/></svg>
